X:205
T: Langstrom's Pony
M: 6/8
L: 1/8
R: Jig
K: Amix
fed cAA|EAA cBA|fed cAA|BGB dcB|
fed cAA|EAA cBA|faf g2e|dBG Bcd :|
cee dff|cee ecA|cee dfa|BGG Bcd|
cee dff|cee efg|faf g2e|dBG Bcd :|
Ace aga|ecA ecA|GBd gfg|BGG Bcd|
faf g2e|f2d ecA|a2f g2e|dBG Bcd :|
AEA A2e|cAc ecB|AEA AB=c|BGB dcB|
AEA A2e|cAc efg|faf g2e|dBG Bcd :|
